svg/fluentui-system-icons/ic_fluent_apps_16_filled.svg

<svg width="16" height="16" viewBox="0 0 16 16" fill="none" xmlns="http://www.w3.org/2000/svg">
<path d="M11.8105 2.44911C11.2248 1.86332 10.275 1.86332 9.68922 2.44911L7.96197 4.17636C7.81383 3.50372 7.21422 3.00044 6.49707 3.00044H3.49707C2.66864 3.00044 1.99707 3.67202 1.99707 4.50044V12.4985C1.99707 13.0088 2.25188 13.4595 2.64121 13.7305C2.88446 13.9006 3.18051 14.0004 3.49988 14.0004H11.4999C12.3283 14.0004 12.9999 13.3289 12.9999 12.5004V9.50044C12.9999 8.80142 12.5217 8.21408 11.8746 8.04764L13.5812 6.34109C14.167 5.7553 14.167 4.80555 13.5812 4.21977L11.8105 2.44911ZM7.99707 6.4196L9.57791 8.00044H7.99707V6.4196ZM6.99707 8.00044L2.99707 8.00044V4.50044C2.99707 4.2243 3.22093 4.00044 3.49707 4.00044H6.49707C6.77321 4.00044 6.99707 4.2243 6.99707 4.50044V8.00044ZM3.21149 12.9089C3.08346 12.8184 2.99988 12.6692 2.99988 12.5004L2.99988 9.00044H6.99707V12.9985H3.49707C3.3909 12.9985 3.29245 12.9654 3.21149 12.9089ZM7.99707 13.0004V9.00044H11.4999C11.776 9.00044 11.9999 9.2243 11.9999 9.50044V12.5004C11.9999 12.7766 11.776 13.0004 11.4999 13.0004H7.99707Z" fill="#212121"/>
</svg>

<svg xmlns="http://www.w3.org/2000/svg" width="16" height="16"><path d="M11.81 2.45a1.5 1.5 0 0 0-2.12 0L7.961 4.175A1.5 1.5 0 0 0 6.497 3h-3a1.5 1.5 0 0 0-1.5 1.5v7.998c0 .51.255.962.644 1.232.243.17.54.27.859.27h8a1.5 1.5 0 0 0 1.5-1.5v-3a1.5 1.5 0 0 0-1.125-1.452L13.58 6.34a1.5 1.5 0 0 0 0-2.121l-1.77-1.77ZM7.997 6.42 9.577 8h-1.58V6.42Zm-1 1.58h-4V4.5a.5.5 0 0 1 .5-.5h3a.5.5 0 0 1 .5.5V8Zm-3.786 4.91A.5.5 0 0 1 3 12.5V9h3.997v3.998h-3.5a.497.497 0 0 1-.286-.09Zm4.786.09V9H11.5a.5.5 0 0 1 .5.5v3a.5.5 0 0 1-.5.5H7.997Z"/></svg>
